icons/media/stop-circle-24.svg

<svg width="24" height="24" viewBox="0 0 24 24" fill="none" xmlns="http://www.w3.org/2000/svg">
<path fill-rule="evenodd" clip-rule="evenodd" d="M9.5 7C8.11929 7 7 8.11929 7 9.5V14.5C7 15.8807 8.11929 17 9.5 17H14.5C15.8807 17 17 15.8807 17 14.5V9.5C17 8.11929 15.8807 7 14.5 7H9.5ZM8.5 9.5C8.5 8.94772 8.94771 8.5 9.5 8.5H14.5C15.0523 8.5 15.5 8.94772 15.5 9.5V14.5C15.5 15.0523 15.0523 15.5 14.5 15.5H9.5C8.94772 15.5 8.5 15.0523 8.5 14.5V9.5Z" fill="black"/>
<path fill-rule="evenodd" clip-rule="evenodd" d="M12 1C5.925 1 1 5.925 1 12C1 18.075 5.925 23 12 23C18.075 23 23 18.075 23 12C23 5.925 18.075 1 12 1ZM5.28249 5.28249C7.06408 3.50089 9.48044 2.5 12 2.5C14.5196 2.5 16.9359 3.50089 18.7175 5.28249C20.4991 7.06408 21.5 9.48044 21.5 12C21.5 14.5196 20.4991 16.9359 18.7175 18.7175C16.9359 20.4991 14.5196 21.5 12 21.5C9.48044 21.5 7.06408 20.4991 5.28249 18.7175C3.50089 16.9359 2.5 14.5196 2.5 12C2.5 9.48044 3.50089 7.06408 5.28249 5.28249Z" fill="black"/>
</svg>

<svg xmlns="http://www.w3.org/2000/svg" width="24" height="24"><path fill-rule="evenodd" d="M9.5 7A2.5 2.5 0 007 9.5v5A2.5 2.5 0 009.5 17h5a2.5 2.5 0 002.5-2.5v-5A2.5 2.5 0 0014.5 7h-5zm-1 2.5a1 1 0 011-1h5a1 1 0 011 1v5a1 1 0 01-1 1h-5a1 1 0 01-1-1v-5z"/><path fill-rule="evenodd" d="M12 1C5.925 1 1 5.925 1 12s4.925 11 11 11 11-4.925 11-11S18.075 1 12 1zM5.282 5.282a9.5 9.5 0 1113.435 13.435A9.5 9.5 0 015.282 5.282z"/></svg>
